resources/svg/paypal-o.svg

<svg width="15" height="15" viewBox="0 0 15 15" fill="none" xmlns="http://www.w3.org/2000/svg">
<path d="M0.5 12.5H4.5L5.5 8.5H7.29496C9.22281 8.5 10.9485 7.30413 11.6254 5.49902C12.5324 3.08021 10.7443 0.5 8.16104 0.5H3.5L0.5 12.5Z" stroke="black" stroke-linejoin="round"/>
<path d="M4 14.5H8L9 11H10.5767C12.054 11 13.3964 10.141 14.0155 8.7997C14.9422 6.79198 13.4757 4.5 11.2644 4.5H6.5L4 14.5Z" stroke="black" stroke-linejoin="round"/>
</svg>

<svg viewBox="0 0 15 15" fill="none" xmlns="http://www.w3.org/2000/svg" fill="currentColor"><path d="M.5 12.5h4l1-4h1.795a4.625 4.625 0 004.33-3.001C12.532 3.08 10.745.5 8.161.5H3.5l-3 12z" stroke="currentColor" stroke-linejoin="round"/><path d="M4 14.5h4L9 11h1.577c1.477 0 2.82-.859 3.438-2.2.927-2.008-.54-4.3-2.75-4.3H6.5L4 14.5z" stroke="currentColor" stroke-linejoin="round"/></svg>
